src/categories-icons-sprite/categories/svg-cat-clothes-men.svg

<svg width="37" height="42" viewBox="0 0 37 42" fill="none" xmlns="http://www.w3.org/2000/svg">
<path class="p-966641" d="M9.84375 5.00391V14.2816L18.457 20.0156L27.0703 14.2816V5.00391H9.84375Z" fill="#AFD9F6"/>
<path class="p-7E5436" d="M27.0703 5.00391V14.2816L18.457 20.0155V5.00391H27.0703Z" fill="#65B3E7"/>
<path class="p-68544F" d="M35.6836 14.8477C33.6409 14.8477 31.9922 13.1987 31.9922 11.1562V0H24.6094V12.9527L18.457 17.0623L12.3047 12.9527V0H4.92188V11.1562C4.92188 12.1405 4.52821 13.0757 3.81445 13.7648C3.15008 14.4538 2.21493 14.8477 1.23047 14.8477H0V36.6023L13.6582 42L18.4324 37.4883L18.457 37.5127L23.0836 42L36.9141 36.6023V14.8477H35.6836Z" fill="#58ADE5"/>
<path class="p-53433F" d="M36.9141 14.8477V36.6023L23.0836 42L18.457 37.5128V17.0624L24.6094 12.9527V0H31.9922V11.1562C31.9922 13.1987 33.6409 14.8477 35.6836 14.8477H36.9141Z" fill="#4D98CB"/>
<path class="p-966641" d="M5.69141 30.934L13.8841 34.2529L14.807 31.9722L6.61426 28.6533L5.69141 30.934Z" fill="#5FBEFF"/>
<path class="p-7E5436" d="M30.3052 28.6387L22.0908 31.9263L23.0041 34.2119L31.2184 30.9241L30.3052 28.6387Z" fill="#76B7E2"/>
<path class="p-FFDA2D" d="M24.6094 19.7695H22.1484V22.2305H24.6094V19.7695Z" fill="#B9DFFC"/>
<path class="p-FFDA2D" d="M24.6094 24.6914H22.1484V27.1523H24.6094V24.6914Z" fill="#B9DFFC"/>
</svg>

<svg width="37" height="42" fill="none" xmlns="http://www.w3.org/2000/svg"><path class="p-966641" d="M9.844 5.004v9.278l8.613 5.734 8.613-5.734V5.004H9.844z" fill="#AFD9F6"/><path class="p-7E5436" d="M27.07 5.004v9.278l-8.613 5.733V5.005h8.613z" fill="#65B3E7"/><path class="p-68544F" d="M35.684 14.848a3.687 3.687 0 01-3.692-3.692V0H24.61v12.953l-6.152 4.11-6.152-4.11V0H4.922v11.156a3.61 3.61 0 01-1.108 2.609 3.589 3.589 0 01-2.584 1.083H0v21.754L13.658 42l4.774-4.512.025.025L23.084 42l13.83-5.398V14.848h-1.23z" fill="#58ADE5"/><path class="p-53433F" d="M36.914 14.848v21.754L23.084 42l-4.627-4.487v-20.45l6.152-4.11V0h7.383v11.156a3.687 3.687 0 003.692 3.692h1.23z" fill="#4D98CB"/><path class="p-966641" d="M5.691 30.934l8.193 3.319.923-2.28-8.193-3.32-.923 2.281z" fill="#5FBEFF"/><path class="p-7E5436" d="M30.305 28.639l-8.214 3.287.913 2.286 8.214-3.288-.913-2.285z" fill="#76B7E2"/><path class="p-FFDA2D" d="M24.61 19.77h-2.462v2.46h2.461v-2.46zM24.61 24.691h-2.462v2.461h2.461v-2.46z" fill="#B9DFFC"/></svg>
